!!!!SEGMENT: pl-kk--i-545--009_anonim--serce-jezusa-z-nami.krn
!!!cenid: 18xx:4486
!!!COM: Anonim
!!!COM-rismID: pe30004985
!!!CDT:
!!!CNT:
!!!OTL: Serce Jezusa z nami
!!!PDT:
!!!AGN: Sacred
!!!YEC: Copyright 2022 Narodowy Instytut Fryderyka Chopina (https://polishscores.org)
!!!YEM: License CC-BY-4.0 (https://creativecommons.org/licenses/by/4.0)
!!!SMS-siglum: PL-Kk
!!!SMS-shelfmark: I.545
!!!SMS-variant:
!!!SMS-altvar:
!!!SMS-shelfwork: 009 W
!!!NIFC-rismSourceID: 1001210831
!!!NIFC-rismChildID: 1001210844
!!!NIFC-islandoraID: pl-kk:17058
!!!URL-pdf-islandora: https://repozytorium.nifc.pl/islandora/object/pl-kk%3A17058/datastream/PDF/view
!!!URL-scan: https://polish.musicsources.pl/pl/lokalizacje/galeria/rekopisy/7172/8 @EN{Scan on Polish Music Sources Website} @PL{Skany w portalu Dziedzictwo Muzyki Polskiej w otwartym dostępie}
!!!IIIF:
!!!ONB-nifc: UWAGA: 6v.
!!!AIN: 1 alto 1 bass 1 soprn 1 tenor
!!!key: C
**kern	**text	**kern	**text	**dynam
*part2	*part2	*part1	*part1	*part1
*staff2	*staff2	*staff1	*staff1	*
*ICvox	*	*ICvox	*	*
*Itenor&Ibass	*	*Isoprn&Ialto	*	*
*I"[Voci]	*	*I"[Voci]	*	*
*clefF4	*	*clefG2	*	*
*k[]	*	*k[]	*	*
*C:	*	*C:	*	*
*M4/4	*	*M4/4	*	*
*met(c)	*	*met(c)	*	*
=1	=1	=1	=1	=1
*^	*	*^	*	*
!!LO:TX:a:B:t=Maestoso
2c\	2c/	.	2cc/	2cc\	Ser-	.
4G/	4G\	.	4g/	4g\	-ce	.
4E/	4E\	.	4e/	4e\	Je-	.
=2	=2	=2	=2	=2	=2	=2
4G\	4G/	.	4g/	4g\	-zu-	.
4c/	4c\	.	4cc/	4cc\	-sa	.
[2G/	[2C\	.	[2ee/	[2cc\	z na-	.
=3	=3	=3	=3	=3	=3	=3
2G/]	2C\]	.	2ee/]	2cc\]	.	.
4E;/	4C;\	.	4cc;/	4g\	-mi	.
4r	4ryy	.	4r	4ryy	.	.
=4	=4	=4	=4	=4	=4	=4
2c\	2c/	.	2ee/	2ee\	Ser-	.
4G/	4G\	.	4cc/	4cc\	-ce	.
4E/	4E\	.	4g/	4g\	Je-	.
=5	=5	=5	=5	=5	=5	=5
4G/	4G\	.	4cc/	4cc\	-zu-	.
4c/	4c\	.	4ee/	4ee\	-sa	.
[2c\	2ryy	.	[2gg/	[2ee\	z na-	.
=6	=6	=6	=6	=6	=6	=6
2c/]	2C\	.	2gg/]	2ee\]	.	.
!	!	!	!LO:TX:t=P:problem:LO:N:xstem	!	!	!
4G;/	4C;\	.	4ee 4cc;\	4ryy	-mi	.
4c/	4r	.	4r	4ee\	Cześć	.
!!LO:LB:g=original
=7	=7	=7	=7	=7	=7	=7
*	*	*	*	*	*^	*
*	*	*	*	*	*above	*	*
4B/	4r	.	4r	4dd\	.	Ci	.
4A/	4A\	Cześć	4ff/	4cc\	Cześć	za	.
4G\	2G/	Ci	4ee/	2b\	Ci	wszel-	.
4F\	.	za	(4dd/	.	za	.	.
=8	=8	=8	=8	=8	=8	=8	=8
4G/	4E\	wszel-	4cc/)	4cc\	wszel-	.	.
4F\	4ryy	-kiej	8ee/L	4a\	-kiej	-kiej	.
.	.	.	8dd/J	.	.	.	.
4G/	4E\	.	4cc/	4g\	.	łas-	.
4E/	4GG\	.	4cc/	4g\	.	-ki	.
*	*	*	*	*	*v	*v	*
=9	=9	=9	=9	=9	=9	=9
*	*	*	*	*	*below	*
4E-X/	4AA-X\	.	4cc/	4f#X\	ob-	.
8E-/	8AA-\	.	8cc/	8f#\	-fi-	.
8E-/	8AA-\	.	8cc/	8f#\	-te	.
4En/	2GG\	.	(4cc/	2g\	zdro-	.
4F/	.	.	4b/)	.	.	.
=10	=10	=10	=10	=10	=10	=10
2.E/	2.C\	.	2.cc/	2.g\	-je	.
4r;	4ryy	.	4r;	4ryy	.	.
==11	==11	==11	==11	==11	==11	==11
!	!	!	!	!	!	!LO:DY:a:rj
4.E/	4.AA\	.	4.cc/	4.a\	Wi-	ff
8E/	8AA\	.	8cc/	8a\	-taj	.
4E/	4AA\	.	4cc/	4a\	nam	.
4r	4ryy	.	4r	4ryy	.	.
!!LO:LB:g=original
=12	=12	=12	=12	=12	=12	=12
4.G/	4.E\	.	4.ee/	4.b\	wi-	.
8G/	8E\	.	8ee/	8b\	-taj	.
4G/	4E\	.	4ee/	4b\	nam	.
4r	4ryy	.	4r	4ryy	.	.
=13	=13	=13	=13	=13	=13	=13
2A/	2D\	.	2ff/	2cc\	Zbaw-	.
4A/	4F\	.	4cc/	4cc\	-co	.
4A/	4F\	.	4dd/	4cc\	nasz	.
=14	=14	=14	=14	=14	=14	=14
4G/	4G\	.	4ee/	4cc\	Bo-	.
4G/	4GG\	.	4dd/	4b\	-że	.
2r	2ryy	.	2r	2ryy	.	.
=15	=15	=15	=15	=15	=15	=15
*	*	*^	*	*	*^	*
*	*	*above	*	*	*	*above	*	*
4c/	4c\	Da-	Da-	2r	2ryy	.	.	.
4B/	4B\	-ro-	-ro-	.	.	.	.	.
4A/	4A\	-wa-	-wa-	4cc\	2rgg	.	Da-	.
4G/	4G\	-łeś	-łeś,	4b\	.	.	-ro-	.
=16	=16	=16	=16	=16	=16	=16	=16	=16
4F/	4F\	Ser-	da-	4a\	2ryy	.	-wa-	.
4G/	4E\	-ce	-ro-	4g\	.	.	-łeś	.
2A/	(4D\	nam	-wa-	4f\	4ff/	Da-	Ser-	.
.	4C\)	.	-łeś	4f\	4ee/	-ro-	-ce	.
=17	=17	=17	=17	=17	=17	=17	=17	=17
4d/	4BB\	Da-	Ser-	2dd/	2g\	-wa-	nam	.
4c/	4AA\	-ro-	-ce	.	.	.	.	.
4B/	2GG\	-wa-	nam	4dd/	4dd\	-łeś	Da-	.
4A/	.	-łeś	.	4cc\	4rbb	.	-ro-	.
=18	=18	=18	=18	=18	=18	=18	=18	=18
4G/	4G\	Ser-	Da-	4b\	2rgg	.	-wa-	.
4A/	4F\	-ce	-ro-	4a\	.	.	-łeś	.
2G/	4E\	nam	-wa-	4cc\	4gg/	Ser-	Ser-	.
.	4D\	.	-łeś	4b\	4ff/	-ce	-ce	.
!!LO:LB:g=original
=19	=19	=19	=19	=19	=19	=19	=19	=19
4e/	4C\	ser-	Ser-	2ee/	(4cc\	nam	nam	.
4d/	4BB-X\	-ce	-ce	.	4dd\)	.	.	.
4c#X/	2AA\	da-	nam	4aa/	4ee\	Ser-	da-	.
4A/	.	-ro-	.	4gg/	4ee\	-ce	-ro-	.
=20	=20	=20	=20	=20	=20	=20	=20	=20
(4A/	4A\	-wa-	Da-	4ff/	2.dd\	da-	-wa-	.
4B/	4G\	.	-ro-	4ee/	.	-ro-	.	.
4A/)	4F\	.	-wa-	4dd/	.	-wa-	.	.
4G/	4E\	-łeś	-łeś	4cc/	4cc\	-łeś	-łeś	.
*	*	*v	*v	*	*	*	*	*
=21	=21	=21	=21	=21	=21	=21	=21
*	*	*below	*	*	*	*	*
4G/	4D\	Ser-	4ff/	4b\	Ser-	Ser-	.
4G/	4E\	-ce	4ee/	4cc\	-ce	-ce	.
4A/	4F\	nam	4dd/	4dd\	nam	nam	.
!LO:TX:t=P:problem:zmiany naniesione ołówkiem	!	!	!	!	!	!	!
4A/	4FF\	o	4dd#/	4cc\	.	o	.
*	*	*	*	*	*v	*v	*
=22	=22	=22	=22	=22	=22	=22
*	*	*	*	*	*below	*
2G/	2GG\	do-	2ee/	2cc\	do-	.
2E/	2GG\	-bry	2cc/	2g\	-bry	.
=23	=23	=23	=23	=23	=23	=23
2.D/	1GG	Je-	4cc/	1g	Je-	.
.	.	.	8b/L	.	.	.
.	.	.	8a/J	.	.	.
.	.	.	2b/	.	.	.
8G/L	.	.	.	.	.	.
8F/J	.	.	.	.	.	.
=24	=24	=24	=24	=24	=24	=24
2.E/	2.C\	-zu	2.cc 2.g/	2.ryy	-su.	.
*v	*v	*	*	*	*	*
*	*	*v	*v	*	*
==	==	==	==	==
*-	*-	*-	*-	*-
!!!system-decoration: (s1,s2)
!!!RDF**kern: i = editorial accidental
!!!RDF**kern: > = above
!!!RDF**kern: < = below
!!!RDF**kern: N = linked
!!!RDF**dynam: > = "dim.", fontstyle= "italic"
!!!RDF**kern: @ = marked note, color=red
!!!ENC: Filip Voros
!!!EED: Katarzyna Serwa
!!!END: 2023-10-27
!!!EEV: 2024-04-23
